src/common/icons/hospital.svg

<svg width="63" height="63" viewBox="0 0 63 63" fill="none" xmlns="http://www.w3.org/2000/svg">
<circle cx="31.5" cy="31.5" r="31.5" fill="#AA93EC"/>
<path d="M32.7031 27.3457L25.8249 31.1692C23.0778 32.6962 19.5652 31.79 17.9792 29.1451L17.8715 28.9655C16.2855 26.3206 17.2267 22.9386 19.9737 21.4116L26.852 17.5881L32.7031 27.3457Z" fill="#DACDFF"/>
<path d="M31.0225 38.9551L34.9936 32.3326C36.5796 29.6878 40.0922 28.7815 42.8393 30.3086L43.0259 30.4123C45.7729 31.9393 46.7141 35.3213 45.1281 37.9662L41.1569 44.5886L31.0225 38.9551Z" fill="#E9CDFF"/>
<path fill-rule="evenodd" clip-rule="evenodd" d="M32.7086 27.3435C32.7068 27.3445 32.7051 27.3455 32.7033 27.3464C31.2605 28.1485 28.7811 26.6143 27.1653 23.9198C25.5496 21.2253 25.4094 18.3908 26.8522 17.5888C26.8522 17.5888 26.8523 17.5887 26.8524 17.5887L33.6373 13.8171C36.4359 12.2614 40.0144 13.1846 41.6302 15.8791C43.2459 18.5736 42.287 22.019 39.4885 23.5747L32.7086 27.3435Z" fill="#8269CB"/>
<path fill-rule="evenodd" clip-rule="evenodd" d="M31.0197 38.9591C31.0207 38.9574 31.0217 38.9557 31.0228 38.954C31.8558 37.5648 34.7997 37.6998 37.5983 39.2555C40.3968 40.8112 41.9902 43.1984 41.1572 44.5875C41.1572 44.5876 41.1572 44.5877 41.1571 44.5877L37.2398 51.1204C35.6241 53.8149 32.0456 54.7381 29.247 53.1824C26.4484 51.6267 25.4896 48.1813 27.1053 45.4868L31.0197 38.9591Z" fill="#9041B5"/>
<path fill-rule="evenodd" clip-rule="evenodd" d="M32.7035 27.3461L25.9185 31.1177C23.12 32.6734 19.5415 31.7502 17.9257 29.0557C17.8146 28.8705 17.7157 28.6817 17.6288 28.4902C19.3727 30.7696 22.6553 31.4707 25.2615 30.022L32.0464 26.2503L38.8313 22.4787C41.4375 21.03 42.4482 17.9424 41.27 15.3486C41.3987 15.5168 41.519 15.6937 41.6301 15.8789C43.2458 18.5734 42.287 22.0188 39.4884 23.5745L32.7035 27.3461Z" fill="#B2ABC8" fill-opacity="0.3" style="mix-blend-mode:color-burn"/>
<path fill-rule="evenodd" clip-rule="evenodd" d="M31.0223 38.9541L34.9396 32.4215C36.5554 29.727 40.1339 28.8038 42.9324 30.3595C43.1248 30.4664 43.3085 30.5823 43.4832 30.7062C40.7892 29.5717 37.5824 30.5449 36.0777 33.0541L32.1604 39.5867L28.2431 46.1194C26.7384 48.6286 27.4666 51.7892 29.834 53.4682C29.6351 53.3845 29.4391 53.2893 29.2467 53.1823C26.4481 51.6267 25.4893 48.1812 27.105 45.4867L31.0223 38.9541Z" fill="#B2ABC8" fill-opacity="0.3" style="mix-blend-mode:color-burn"/>
<path fill-rule="evenodd" clip-rule="evenodd" d="M27.4519 18.6022L21.5034 21.9089C18.636 23.5028 17.6536 27.0329 19.309 29.7937C19.4228 29.9835 19.5461 30.1646 19.678 30.337C18.4707 27.6795 19.5063 24.5159 22.1766 23.0315L28.1251 19.7249L27.4519 18.6022ZM27.4634 18.5958L33.4119 15.2891C36.2793 13.6952 39.9458 14.6411 41.6013 17.4019C41.7151 17.5916 41.8164 17.785 41.9055 17.9812C40.1187 15.6458 36.7554 14.9275 34.0852 16.4118L28.1366 19.7185L27.4634 18.5958Z" fill="url(#paint0_linear_1031_21819)"/>
<path fill-rule="evenodd" clip-rule="evenodd" d="M40.1115 43.9995L43.5459 38.2722C45.2014 35.5115 44.219 31.9813 41.3516 30.3874C41.1545 30.2778 40.9536 30.1803 40.7499 30.0945C43.1756 31.8148 43.9216 35.0531 42.3799 37.624L38.9455 43.3514L40.1115 43.9995ZM40.1049 44.0106L36.6705 49.7379C35.015 52.4987 31.3485 53.4446 28.4812 51.8507C28.2841 51.7411 28.0959 51.6224 27.9168 51.4954C30.6771 52.6578 33.9628 51.6607 35.5045 49.0898L38.9389 43.3624L40.1049 44.0106Z" fill="url(#paint1_linear_1031_21819)"/>
<path d="M17.9256 29.0565C16.3098 26.362 17.2687 22.9166 20.0672 21.361L33.6372 13.8177C36.4358 12.262 40.0143 13.1852 41.63 15.8797V15.8797C43.2458 18.5742 42.2869 22.0196 39.4883 23.5753L25.9184 31.1186C23.1198 32.6742 19.5413 31.751 17.9256 29.0565V29.0565Z" fill="url(#paint2_linear_1031_21819)"/>
<path d="M42.9328 30.361C45.7313 31.9166 46.6902 35.362 45.0744 38.0565L37.2398 51.1218C35.6241 53.8163 32.0456 54.7395 29.247 53.1839V53.1839C26.4484 51.6282 25.4896 48.1828 27.1053 45.4883L34.9399 32.423C36.5557 29.7285 40.1342 28.8053 42.9328 30.361V30.361Z" fill="url(#paint3_linear_1031_21819)"/>
<defs>
<linearGradient id="paint0_linear_1031_21819" x1="35.6483" y1="11.3709" x2="37.5396" y2="14.9163" gradientUnits="userSpaceOnUse">
<stop stop-color="#C9B6FF"/>
<stop offset="1" stop-color="#C9B6FF" stop-opacity="0"/>
</linearGradient>
<linearGradient id="paint1_linear_1031_21819" x1="36.7685" y1="54.2078" x2="33.295" y2="52.0391" gradientUnits="userSpaceOnUse">
<stop stop-color="#C9B6FF"/>
<stop offset="1" stop-color="#C9B6FF" stop-opacity="0"/>
</linearGradient>
<linearGradient id="paint2_linear_1031_21819" x1="39.1665" y1="38.1251" x2="30.3013" y2="22.177" gradientUnits="userSpaceOnUse">
<stop stop-color="#8042A6"/>
<stop offset="1" stop-color="#473772" stop-opacity="0"/>
</linearGradient>
<linearGradient id="paint3_linear_1031_21819" x1="19.8281" y1="32.7328" x2="35.776" y2="42.296" gradientUnits="userSpaceOnUse">
<stop stop-color="#8042A6"/>
<stop offset="1" stop-color="#473772" stop-opacity="0"/>
</linearGradient>
</defs>
</svg>

<svg xmlns="http://www.w3.org/2000/svg" width="63" height="63" fill="none"><circle cx="31.5" cy="31.5" r="31.5" fill="#AA93EC"/><path fill="#DACDFF" d="m32.703 27.346-6.878 3.823c-2.747 1.527-6.26.621-7.846-2.024l-.107-.18c-1.587-2.644-.645-6.026 2.102-7.553l6.878-3.824 5.851 9.758Z"/><path fill="#E9CDFF" d="m31.023 38.955 3.97-6.622c1.587-2.645 5.1-3.551 7.846-2.024l.187.103c2.747 1.527 3.688 4.91 2.102 7.554l-3.971 6.623-10.134-5.634Z"/><path fill="#8269CB" fill-rule="evenodd" d="m32.709 27.343-.006.003c-1.443.802-3.922-.732-5.538-3.426-1.615-2.695-1.756-5.53-.313-6.331l6.785-3.772c2.799-1.556 6.377-.632 7.993 2.062 1.616 2.695.657 6.14-2.142 7.696l-6.78 3.768Z" clip-rule="evenodd"/><path fill="#9041B5" fill-rule="evenodd" d="M31.02 38.96c0-.003.002-.004.003-.006.833-1.39 3.777-1.254 6.575.301 2.799 1.556 4.392 3.943 3.56 5.332L37.24 51.12c-1.616 2.695-5.194 3.618-7.993 2.062-2.799-1.555-3.757-5-2.142-7.695l3.915-6.528Z" clip-rule="evenodd"/><path fill="#B2ABC8" fill-opacity=".3" fill-rule="evenodd" d="m32.703 27.346-6.785 3.772c-2.798 1.555-6.377.632-7.992-2.062a5.588 5.588 0 0 1-.297-.566c1.744 2.28 5.026 2.98 7.633 1.532l6.784-3.772 6.785-3.771c2.606-1.449 3.617-4.537 2.439-7.13.129.168.249.345.36.53 1.616 2.694.657 6.14-2.142 7.696l-6.785 3.771ZM31.022 38.954l3.918-6.532c1.615-2.695 5.194-3.618 7.992-2.062.193.106.377.222.551.346-2.694-1.134-5.9-.161-7.405 2.348l-3.918 6.533-3.917 6.532c-1.505 2.51-.776 5.67 1.591 7.35a5.981 5.981 0 0 1-.587-.287c-2.799-1.555-3.758-5-2.142-7.695l3.917-6.533Z" clip-rule="evenodd" style="mix-blend-mode:color-burn"/><path fill="url(#a)" fill-rule="evenodd" d="m27.452 18.602-5.949 3.307c-2.867 1.594-3.85 5.124-2.194 7.885.114.19.237.37.369.543-1.207-2.657-.172-5.821 2.499-7.305l5.948-3.307-.673-1.123Zm.011-.006 5.949-3.307c2.867-1.594 6.534-.648 8.19 2.113.113.19.214.383.304.58-1.787-2.336-5.15-3.054-7.82-1.57l-5.95 3.306-.673-1.122Z" clip-rule="evenodd"/><path fill="url(#b)" fill-rule="evenodd" d="m40.111 44 3.435-5.728c1.655-2.76.673-6.29-2.194-7.885a6.15 6.15 0 0 0-.602-.293c2.426 1.72 3.172 4.96 1.63 7.53l-3.434 5.727 1.166.648Zm-.006.01-3.434 5.728c-1.656 2.76-5.322 3.707-8.19 2.113a6.102 6.102 0 0 1-.564-.356c2.76 1.163 6.046.166 7.587-2.405l3.435-5.728 1.166.649Z" clip-rule="evenodd"/><path fill="url(#c)" d="M17.926 29.056c-1.616-2.694-.657-6.14 2.141-7.695l13.57-7.543c2.799-1.556 6.377-.633 7.993 2.062 1.616 2.694.657 6.14-2.142 7.695l-13.57 7.544c-2.798 1.555-6.377.632-7.992-2.063Z"/><path fill="url(#d)" d="M42.933 30.361c2.798 1.556 3.757 5.001 2.141 7.695L37.24 51.123c-1.616 2.694-5.194 3.617-7.993 2.062-2.799-1.556-3.757-5.001-2.142-7.696l7.835-13.065c1.616-2.695 5.194-3.618 7.993-2.062Z"/><defs><linearGradient id="a" x1="35.648" x2="37.54" y1="11.371" y2="14.916" gradientUnits="userSpaceOnUse"><stop stop-color="#C9B6FF"/><stop offset="1" stop-color="#C9B6FF" stop-opacity="0"/></linearGradient><linearGradient id="b" x1="36.769" x2="33.295" y1="54.208" y2="52.039" gradientUnits="userSpaceOnUse"><stop stop-color="#C9B6FF"/><stop offset="1" stop-color="#C9B6FF" stop-opacity="0"/></linearGradient><linearGradient id="c" x1="39.166" x2="30.301" y1="38.125" y2="22.177" gradientUnits="userSpaceOnUse"><stop stop-color="#8042A6"/><stop offset="1" stop-color="#473772" stop-opacity="0"/></linearGradient><linearGradient id="d" x1="19.828" x2="35.776" y1="32.733" y2="42.296" gradientUnits="userSpaceOnUse"><stop stop-color="#8042A6"/><stop offset="1" stop-color="#473772" stop-opacity="0"/></linearGradient></defs></svg>
